app/img/features-draw.svg

<svg width="57" height="56" viewBox="0 0 57 56" fill="none" xmlns="http://www.w3.org/2000/svg">
<path d="M23.2486 48.65C27.402 47.0167 26.492 42.5134 24.392 39.6667C22.3153 36.75 19.4453 34.7434 16.552 32.8067C14.4876 31.5055 12.6443 29.8829 11.092 28C10.4386 27.23 9.10863 25.8067 10.462 25.5267C11.8386 25.2467 14.2186 26.6 15.432 27.1134C17.5553 28 19.6553 29.0267 21.6153 30.24L23.972 26.2734C20.332 23.87 15.6653 21.7467 11.3253 21.1167C8.85197 20.7434 6.23863 21.2567 5.39863 23.94C4.65197 26.25 5.84197 28.5834 7.1953 30.4034C10.392 34.6734 15.362 36.7267 19.072 40.4134C19.8653 41.1834 20.822 42.0934 21.2886 43.1667C21.7786 44.1934 21.662 44.2634 20.5653 44.2634C17.672 44.2634 14.0553 42 11.6986 40.5067L9.34197 44.4734C12.912 46.6667 18.8853 50.0967 23.2486 48.65ZM49.1253 12.25C49.6386 11.7367 49.6386 10.8967 49.1253 10.4067L46.092 7.37337C45.8476 7.13783 45.5214 7.00623 45.182 7.00623C44.8425 7.00623 44.5164 7.13783 44.272 7.37337L41.892 9.75337L46.7453 14.6067L49.1253 12.25ZM26.1653 25.48V30.3334H31.0186L45.3686 15.9834L40.5153 11.13L26.1653 25.48Z" fill="#2091F9"/>
</svg>

<svg width="57" height="56" fill="none" xmlns="http://www.w3.org/2000/svg"><path d="M23.249 48.65c4.153-1.633 3.243-6.137 1.143-8.983-2.077-2.917-4.947-4.924-7.84-6.86A22.905 22.905 0 0111.092 28c-.653-.77-1.983-2.193-.63-2.473 1.377-.28 3.757 1.073 4.97 1.586 2.123.887 4.223 1.914 6.183 3.127l2.357-3.967c-3.64-2.403-8.307-4.526-12.647-5.156-2.473-.374-5.086.14-5.926 2.823-.747 2.31.443 4.643 1.796 6.463 3.197 4.27 8.167 6.324 11.877 10.01.793.77 1.75 1.68 2.217 2.754.49 1.026.373 1.096-.724 1.096-2.893 0-6.51-2.263-8.866-3.756l-2.357 3.966c3.57 2.194 9.543 5.624 13.907 4.177zm25.876-36.4c.514-.513.514-1.353 0-1.843l-3.033-3.034a1.311 1.311 0 00-1.82 0l-2.38 2.38 4.853 4.854 2.38-2.357zm-22.96 13.23v4.853h4.854l14.35-14.35-4.854-4.853-14.35 14.35z" fill="#2091F9"/></svg>
